src/assets/dark/IconVotingActive.svg

<svg width="44" height="44" viewBox="0 0 44 44" fill="none" xmlns="http://www.w3.org/2000/svg">
<g id="voting period active">
<g id="Group 63">
<path id="Oval Copy 8" fill-rule="evenodd" clip-rule="evenodd" d="M21.9688 43.5C33.8429 43.5 43.4688 33.8741 43.4688 22C43.4688 10.1259 33.8429 0.5 21.9688 0.5C10.0946 0.5 0.46875 10.1259 0.46875 22C0.46875 33.8741 10.0946 43.5 21.9688 43.5Z" fill="url(#paint0_linear)"/>
<path id="Path" d="M18.6492 27.8107C18.6492 28.4912 19.2068 29.0491 19.8878 29.0491H26.3099L25.4859 32.979C25.3865 33.4408 25.5288 33.9217 25.8632 34.2537L26.848 35.2397L32.9649 29.123C33.3006 28.7883 33.51 28.3253 33.51 27.8107V19.7639C33.51 18.736 32.6806 17.9062 31.6528 17.9062H23.293C22.526 17.9062 21.8644 18.3707 21.5842 19.0387L18.7796 25.5905C18.6991 25.7997 18.6492 26.0228 18.6492 26.2641V27.8121L18.6492 27.8107Z" fill="#B0A8D8" fill-opacity="0.8"/>
<path id="Path_2" d="M24.5933 16.4212C24.5895 15.7361 24.036 15.1828 23.3546 15.1828H16.9326L17.7565 11.2528C17.856 10.791 17.7136 10.3101 17.3792 9.97817L16.3944 8.99219L10.2775 15.1089C9.94187 15.4436 9.73242 15.908 9.73242 16.4212V24.468C9.73242 25.4958 10.5619 26.3256 11.5897 26.3256H19.9494C20.7165 26.3256 21.3781 25.8612 21.6583 25.1932L24.4629 18.6442C24.5433 18.4336 24.5933 18.2105 24.5933 17.9692V16.4212Z" fill="#E9E7F3"/>
</g>
</g>
<defs>
<linearGradient id="paint0_linear" x1="0.468751" y1="9.17608" x2="45.3151" y2="40.906" gradientUnits="userSpaceOnUse">
<stop stop-color="#6C5BC2"/>
<stop offset="1" stop-color="#5A42AC"/>
</linearGradient>
</defs>
</svg>

<svg width="44" height="44" fill="none" xmlns="http://www.w3.org/2000/svg"><path fill-rule="evenodd" clip-rule="evenodd" d="M21.969 43.5c11.874 0 21.5-9.626 21.5-21.5S33.843.5 21.969.5.469 10.126.469 22s9.626 21.5 21.5 21.5z" fill="url(#paint0_linear)"/><path d="M18.65 27.81c0 .681.557 1.24 1.238 1.24h6.422l-.824 3.929c-.1.462.043.943.377 1.275l.985.986 6.117-6.117c.336-.335.545-.798.545-1.312v-8.047c0-1.028-.83-1.858-1.857-1.858h-8.36c-.767 0-1.429.465-1.709 1.133L18.78 25.59c-.08.21-.13.433-.13.674v1.548-.001z" fill="#B0A8D8" fill-opacity=".8"/><path d="M24.593 16.421a1.242 1.242 0 00-1.238-1.238h-6.422l.823-3.93c.1-.462-.042-.943-.377-1.275l-.985-.986-6.116 6.117c-.336.335-.546.799-.546 1.312v8.047c0 1.028.83 1.858 1.858 1.858h8.36c.767 0 1.428-.465 1.708-1.133l2.805-6.549c.08-.21.13-.433.13-.675v-1.548z" fill="#E9E7F3"/><defs><linearGradient id="paint0_linear" x1=".469" y1="9.176" x2="45.315" y2="40.906" gradientUnits="userSpaceOnUse"><stop stop-color="#6C5BC2"/><stop offset="1" stop-color="#5A42AC"/></linearGradient></defs></svg>
